X:1
T:Monsieur Poisson
C:Calvin Vollrath
M:4/4
L:1/8
R:reel
K:G
|d3c|:BdBG DGBG|ABcA E2cB|ABcA FGAB|AGFE D2dc|
BdBG DGbG|ABcd e2dc|(3BcB GB AGFA|1 G2G2 G2dc :|2 G2BB B2 zG |:
g2(3=ffg e2d2|c2AG EGAB|c2gc egdc|d2(3BdB GBDG|
BDGB AGFE| A2FA DDADF|CDFD ADFD|1 BDGB dedA|ge=fd ecdB :|2 B,DGD AGFA|GBAF G2zg :|
|3 B,DGB dedA|ge=fd ecdB :|4 B,DGB AGFA|GBAF G2z D2c |:]
